dist/img/sprites/google-play.svg

<svg width="111" height="28" viewBox="0 0 111 28" fill="none" xmlns="http://www.w3.org/2000/svg">
<g clip-path="url(#clip0_244_1262)">
<path d="M0.475001 1.86011C0.19 2.14511 0 2.62011 0 3.19011V24.1851C0 24.7551 0.19 25.2301 0.475001 25.5151L0.570001 25.6101L12.35 13.8301V13.6401L0.475001 1.86011Z" fill="url(#paint0_linear_244_1262)"/>
<path d="M16.2451 17.7249L12.3501 13.8299V13.6399L16.2451 9.74487L16.3401 9.83987L20.9951 12.4999C22.3251 13.2599 22.3251 14.4949 20.9951 15.2549L16.2451 17.7249Z" fill="url(#paint1_linear_244_1262)"/>
<path d="M16.2451 17.7251L12.2551 13.7351L0.475098 25.5151C0.950098 25.9901 1.6151 25.9901 2.4701 25.6101L16.2451 17.7251Z" fill="url(#paint2_linear_244_1262)"/>
<path d="M16.2451 9.64993L2.3751 1.76493C1.6151 1.28993 0.855098 1.38493 0.475098 1.85993L12.3501 13.7349L16.2451 9.64993Z" fill="url(#paint3_linear_244_1262)"/>
<path opacity="0.2" d="M16.2449 17.6301L2.37488 25.4201C1.61488 25.8951 0.949883 25.8001 0.474883 25.4201L0.379883 25.5151L0.474883 25.6101C0.949883 25.9901 1.61488 26.0851 2.37488 25.6101L16.2449 17.6301V17.6301Z" fill="white"/>
<path opacity="0.12" d="M0.475001 25.4199C0.19 25.0399 0 24.6599 0 24.0899V24.1849C0 24.7549 0.19 25.2299 0.475001 25.5149V25.4199ZM20.9 14.8749L16.15 17.5349L16.245 17.6299L20.9 14.9699C21.565 14.5899 21.85 14.1149 21.85 13.6399C21.85 14.1149 21.565 14.5899 20.9 14.8749V14.8749Z" fill="white"/>
<path opacity="0.25" d="M2.375 1.955L20.9 12.405C21.47 12.785 21.85 13.165 21.85 13.64C21.85 13.165 21.565 12.69 20.9 12.31L2.375 1.765C1.045 1.005 0 1.67 0 3.19V3.285C0 1.765 1.045 1.195 2.375 1.955V1.955Z" fill="white"/>
<path d="M110.105 15.4449L105.26 26.6549H103.455L105.26 22.6649L102.125 15.4449H104.025L106.115 20.5749H106.21L108.205 15.4449H110.105ZM91.1052 14.8749C91.1052 17.1549 89.2052 18.5799 87.2102 18.5799H84.7402V23.0449H82.9352V11.1699H87.2102C89.2052 11.1699 91.1052 12.5949 91.1052 14.8749V14.8749ZM89.3952 14.8749C89.3952 13.9249 88.6352 12.8799 87.3052 12.8799H84.7402V16.9649H87.3052C88.6352 16.9649 89.3952 15.8249 89.3952 14.8749V14.8749ZM101.84 18.4849V23.0449H100.13V22.0949H100.035C99.6552 22.7599 98.9902 23.2349 97.7552 23.2349C96.2352 23.2349 94.8102 22.1899 94.8102 20.5749C94.8102 18.8649 96.5202 17.9149 98.2302 17.9149C99.0852 17.9149 99.7502 18.1999 100.035 18.3899V18.2949C100.035 17.3449 99.0852 16.7749 98.1352 16.7749C97.4702 16.7749 96.8052 16.9649 96.5202 17.6299L94.9052 16.9649C95.4752 15.7299 96.8052 15.1599 98.0402 15.1599C100.32 15.2549 101.84 16.3949 101.84 18.4849V18.4849ZM100.13 19.8149C99.6552 19.6249 99.2752 19.4349 98.5152 19.4349C97.6602 19.4349 96.6152 19.8149 96.6152 20.6699C96.6152 21.4299 97.4702 21.7149 98.0402 21.7149C99.0852 21.7149 100.035 20.9549 100.13 19.8149V19.8149ZM50.4452 19.2449C50.4452 21.5249 48.6402 23.3299 46.3602 23.3299C44.0802 23.3299 42.2752 21.6199 42.2752 19.2449C42.2752 16.8699 44.0802 15.1599 46.3602 15.1599C48.6402 15.1599 50.4452 16.9649 50.4452 19.2449ZM48.7352 19.2449C48.7352 17.8199 47.6902 16.7749 46.4552 16.7749C45.2202 16.7749 44.1752 17.7249 44.1752 19.2449C44.1752 20.6699 45.2202 21.7149 46.4552 21.7149C47.6902 21.7149 48.7352 20.6699 48.7352 19.2449ZM35.9101 16.4899V18.1999H39.9951C39.9001 19.1499 39.5201 19.9099 39.0451 20.3849C38.4751 20.9549 37.5251 21.6199 35.9101 21.6199C33.3451 21.6199 31.4451 19.6249 31.4451 17.0599C31.425 16.171 31.6695 15.2962 32.1477 14.5466C32.6259 13.797 33.3161 13.2065 34.1307 12.8501C34.9453 12.4937 35.8474 12.3876 36.7225 12.5451C37.5975 12.7026 38.406 13.1168 39.0451 13.7349L40.2801 12.4999C39.1344 11.3915 37.5992 10.7774 36.0051 10.7899C32.5851 10.7899 29.6401 13.6399 29.6401 17.0599C29.6401 20.4799 32.5851 23.3299 36.0051 23.3299C37.9051 23.3299 39.2351 22.7599 40.3751 21.5249C41.5151 20.3849 41.8951 18.7699 41.8951 17.5349C41.8951 17.1549 41.8951 16.7749 41.8001 16.4899H35.9101V16.4899ZM59.2802 19.2449C59.2802 21.5249 57.4752 23.3299 55.1952 23.3299C54.6552 23.3429 54.1181 23.2461 53.6166 23.0455C53.1151 22.8448 52.6596 22.5443 52.2776 22.1624C51.8957 21.7804 51.5953 21.3249 51.3946 20.8234C51.1939 20.3219 51.0971 19.7849 51.1102 19.2449C51.1102 16.8699 52.9152 15.1599 55.1952 15.1599C57.4752 15.2549 59.2802 16.9649 59.2802 19.2449ZM57.5702 19.2449C57.5702 17.8199 56.5252 16.7749 55.2902 16.7749C54.0552 16.7749 53.0102 17.7249 53.0102 19.2449C53.0102 20.6699 54.0552 21.7149 55.2902 21.7149C56.5252 21.7149 57.5702 20.6699 57.5702 19.2449ZM79.1352 18.2949L73.7202 20.5749C74.1002 21.4299 74.7652 21.8099 75.7152 21.8099C76.6652 21.8099 77.2352 21.3349 77.7102 20.6699L79.1352 21.6199C78.6663 22.354 77.969 22.9136 77.1507 23.2124C76.3324 23.5111 75.4386 23.5326 74.607 23.2734C73.7753 23.0142 73.052 22.4887 72.5484 21.7779C72.0448 21.0671 71.7889 20.2104 71.8202 19.3399C71.8202 16.9649 73.5302 15.2549 75.6202 15.2549C77.7102 15.2549 78.7552 16.9649 79.0402 17.8199L79.1352 18.2949V18.2949ZM77.0452 17.6299C76.8552 17.1549 76.2852 16.7749 75.5252 16.7749C74.5752 16.7749 73.3402 17.5349 73.4352 19.1499L77.0452 17.6299ZM92.1502 23.0449H93.9552V11.1699H92.1502V23.0449ZM69.0652 23.0449H70.8702V11.1699H69.0652V23.0449ZM66.1202 15.4449H67.8302V22.6649C67.8302 25.6099 66.0252 26.8449 64.0302 26.8449C62.0352 26.8449 60.8952 25.5149 60.4202 24.4699L61.9402 23.8049C62.2252 24.4699 62.8902 25.2299 63.9352 25.2299C65.2652 25.2299 66.1202 24.3749 66.1202 22.8549V22.2849H66.0252C65.6452 22.7599 64.8852 23.2349 63.9352 23.2349C61.9402 23.2349 60.0402 21.4299 60.0402 19.2449C60.0402 16.9649 61.8452 15.1599 63.9352 15.1599C64.8852 15.1599 65.6452 15.6349 66.0252 16.1099H66.1202V15.4449V15.4449ZM66.2152 19.2449C66.2152 17.8199 65.2652 16.7749 64.0302 16.7749C62.7952 16.7749 61.7502 17.8199 61.7502 19.2449C61.7502 20.6699 62.7952 21.7149 64.0302 21.7149C65.2652 21.7149 66.2152 20.6699 66.2152 19.2449ZM56.3352 6.22986C55.7652 5.65986 55.4802 4.99486 55.4802 4.13986C55.4802 3.28486 55.7652 2.61986 56.3352 2.04985C56.9052 1.38485 57.5702 1.09985 58.4252 1.09985C59.2802 1.09985 59.9452 1.38485 60.5152 1.95485C61.0852 2.52486 61.3702 3.18986 61.3702 4.04486C61.3702 4.89986 61.0852 5.56486 60.5152 6.13486C59.9452 6.70486 59.2802 6.98986 58.4252 6.98986C57.5702 7.08486 56.9052 6.79986 56.3352 6.22986V6.22986ZM56.2402 4.13986C56.2402 4.80486 56.4302 5.37486 56.9052 5.75486C57.2852 6.22986 57.8552 6.41986 58.4252 6.41986C58.9952 6.41986 59.5652 6.22986 59.9452 5.75486C60.3252 5.37486 60.6102 4.80486 60.6102 4.13986C60.6102 3.47486 60.4202 2.90486 59.9452 2.52486C59.5652 2.04985 58.9952 1.85985 58.4252 1.85985C57.8552 1.85985 57.2852 2.04985 56.9052 2.52486C56.4302 2.90486 56.2402 3.47486 56.2402 4.13986ZM32.7751 7.08486C33.6301 7.08486 34.2951 6.79986 34.8651 6.22986C35.3401 5.75486 35.5301 5.08986 35.5301 4.32986V3.85486H32.7751V4.51986H34.8651C34.8651 4.99486 34.6751 5.37486 34.3901 5.65986C34.0101 6.03986 33.4401 6.32486 32.7751 6.32486C32.2051 6.32486 31.6351 6.13486 31.2551 5.65986C30.7801 5.27986 30.5901 4.70986 30.5901 4.04486C30.5901 3.37986 30.7801 2.80986 31.2551 2.42986C31.7301 2.04985 32.2051 1.76485 32.7751 1.76485C33.4401 1.76485 33.9151 1.95485 34.2951 2.42986L34.8651 2.04985C34.6751 1.76485 34.3901 1.57485 34.0101 1.38485C33.6301 1.19485 33.2501 1.09985 32.7751 1.09985C31.9201 1.09985 31.2551 1.38485 30.6851 1.95485C30.1151 2.52486 29.8301 3.18986 29.8301 4.04486C29.8301 4.89986 30.1151 5.56486 30.6851 6.13486C31.2551 6.79986 32.0151 7.08486 32.7751 7.08486V7.08486ZM39.9951 6.22986H37.4301V4.42486H39.8051V3.75986H37.4301V1.95485H39.9951V1.28985H36.6701V6.98986H39.9951V6.22986V6.22986ZM43.1302 6.98986V1.95485H44.6502V1.28985H40.7551V1.95485H42.3701V6.98986H43.1302ZM48.2602 1.28985H47.5002V6.98986H48.2602V1.28985ZM51.4902 6.98986V1.95485H53.1052V1.28985H49.2102V1.95485H50.8252V6.98986H51.4902V6.98986ZM63.0802 3.37986V2.23985L66.0252 6.89486H66.7852V1.19485H66.0252V5.65986L63.2702 1.19485H62.4152V6.89486H63.1752V3.37986H63.0802Z" fill="white"/>
</g>
<defs>
<linearGradient id="paint0_linear_244_1262" x1="11.2385" y1="2.95261" x2="-4.71201" y2="18.8936" gradientUnits="userSpaceOnUse">
<stop stop-color="#00A0FF"/>
<stop offset="0.01" stop-color="#00A1FF"/>
<stop offset="0.26" stop-color="#00BEFF"/>
<stop offset="0.51" stop-color="#00D2FF"/>
<stop offset="0.76" stop-color="#00DFFF"/>
<stop offset="1" stop-color="#00E3FF"/>
</linearGradient>
<linearGradient id="paint1_linear_244_1262" x1="22.6671" y1="13.6779" x2="-0.313418" y2="13.6779" gradientUnits="userSpaceOnUse">
<stop stop-color="#FFE000"/>
<stop offset="0.41" stop-color="#FFBD00"/>
<stop offset="0.78" stop-color="#FFA500"/>
<stop offset="1" stop-color="#FF9C00"/>
</linearGradient>
<linearGradient id="paint2_linear_244_1262" x1="14.1076" y1="15.8631" x2="-7.50491" y2="37.4756" gradientUnits="userSpaceOnUse">
<stop stop-color="#FF3A44"/>
<stop offset="1" stop-color="#C31162"/>
</linearGradient>
<linearGradient id="paint3_linear_244_1262" x1="-2.53641" y1="-5.15108" x2="7.11561" y2="4.50093" gradientUnits="userSpaceOnUse">
<stop stop-color="#32A071"/>
<stop offset="0.07" stop-color="#2DA771"/>
<stop offset="0.48" stop-color="#15CF74"/>
<stop offset="0.8" stop-color="#06E775"/>
<stop offset="1" stop-color="#00F076"/>
</linearGradient>
<clipPath id="clip0_244_1262">
<rect width="110.2" height="27.55" fill="white" transform="translate(0 0.149902)"/>
</clipPath>
</defs>
</svg>

<svg width="111" height="28" viewBox="0 0 111 28" fill="none" xmlns="http://www.w3.org/2000/svg"><g clip-path="url(#clip0_244_1262)"><path d="M.475 1.86C.19 2.145 0 2.62 0 3.19v20.995c0 .57.19 1.045.475 1.33l.095.095 11.78-11.78v-.19L.475 1.86z" fill="url(#paint0_linear_244_1262)"/><path d="M16.245 17.725L12.35 13.83v-.19l3.895-3.895.095.095 4.655 2.66c1.33.76 1.33 1.995 0 2.755l-4.75 2.47z" fill="url(#paint1_linear_244_1262)"/><path d="M16.245 17.725l-3.99-3.99-11.78 11.78c.475.475 1.14.475 1.995.095l13.775-7.885z" fill="url(#paint2_linear_244_1262)"/><path d="M16.245 9.65L2.375 1.765c-.76-.475-1.52-.38-1.9.095L12.35 13.735l3.895-4.085z" fill="url(#paint3_linear_244_1262)"/><path opacity=".2" d="M16.245 17.63l-13.87 7.79c-.76.475-1.425.38-1.9 0l-.095.095.095.095c.475.38 1.14.475 1.9 0l13.87-7.98z" fill="#fff"/><path opacity=".12" d="M.475 25.42C.19 25.04 0 24.66 0 24.09v.095c0 .57.19 1.045.475 1.33v-.095zM20.9 14.875l-4.75 2.66.095.095 4.655-2.66c.665-.38.95-.855.95-1.33 0 .475-.285.95-.95 1.235z" fill="#fff"/><path opacity=".25" d="M2.375 1.955L20.9 12.405c.57.38.95.76.95 1.235 0-.475-.285-.95-.95-1.33L2.375 1.765C1.045 1.005 0 1.67 0 3.19v.095c0-1.52 1.045-2.09 2.375-1.33z" fill="#fff"/><path d="M110.105 15.445l-4.845 11.21h-1.805l1.805-3.99-3.135-7.22h1.9l2.09 5.13h.095l1.995-5.13h1.9zm-19-.57c0 2.28-1.9 3.705-3.895 3.705h-2.47v4.465h-1.805V11.17h4.275c1.995 0 3.895 1.425 3.895 3.705zm-1.71 0c0-.95-.76-1.995-2.09-1.995H84.74v4.085h2.565c1.33 0 2.09-1.14 2.09-2.09zm12.445 3.61v4.56h-1.71v-.95h-.095c-.38.665-1.045 1.14-2.28 1.14-1.52 0-2.945-1.045-2.945-2.66 0-1.71 1.71-2.66 3.42-2.66.855 0 1.52.285 1.805.475v-.095c0-.95-.95-1.52-1.9-1.52-.665 0-1.33.19-1.615.855l-1.615-.665c.57-1.235 1.9-1.805 3.135-1.805 2.28.095 3.8 1.235 3.8 3.325zm-1.71 1.33c-.475-.19-.855-.38-1.615-.38-.855 0-1.9.38-1.9 1.235 0 .76.855 1.045 1.425 1.045 1.045 0 1.995-.76 2.09-1.9zm-49.685-.57a4.055 4.055 0 01-4.085 4.085c-2.28 0-4.085-1.71-4.085-4.085s1.805-4.085 4.085-4.085a4.055 4.055 0 014.085 4.085zm-1.71 0c0-1.425-1.045-2.47-2.28-2.47-1.235 0-2.28.95-2.28 2.47 0 1.425 1.045 2.47 2.28 2.47 1.235 0 2.28-1.045 2.28-2.47zM35.91 16.49v1.71h4.085c-.095.95-.475 1.71-.95 2.185-.57.57-1.52 1.235-3.135 1.235-2.565 0-4.465-1.995-4.465-4.56a4.485 4.485 0 017.6-3.325L40.28 12.5a6.08 6.08 0 00-4.275-1.71c-3.42 0-6.365 2.85-6.365 6.27 0 3.42 2.945 6.27 6.365 6.27 1.9 0 3.23-.57 4.37-1.805 1.14-1.14 1.52-2.755 1.52-3.99 0-.38 0-.76-.095-1.045h-5.89zm23.37 2.755a4.055 4.055 0 01-4.085 4.085 3.992 3.992 0 01-4.085-4.085c0-2.375 1.805-4.085 4.085-4.085 2.28.095 4.085 1.805 4.085 4.085zm-1.71 0c0-1.425-1.045-2.47-2.28-2.47-1.235 0-2.28.95-2.28 2.47 0 1.425 1.045 2.47 2.28 2.47 1.235 0 2.28-1.045 2.28-2.47zm21.565-.95l-5.415 2.28c.38.855 1.045 1.235 1.995 1.235.95 0 1.52-.475 1.995-1.14l1.425.95a3.971 3.971 0 01-7.315-2.28c0-2.375 1.71-4.085 3.8-4.085s3.135 1.71 3.42 2.565l.095.475zm-2.09-.665c-.19-.475-.76-.855-1.52-.855-.95 0-2.185.76-2.09 2.375l3.61-1.52zm15.105 5.415h1.805V11.17H92.15v11.875zm-23.085 0h1.805V11.17h-1.805v11.875zm-2.945-7.6h1.71v7.22c0 2.945-1.805 4.18-3.8 4.18-1.995 0-3.135-1.33-3.61-2.375l1.52-.665c.285.665.95 1.425 1.995 1.425 1.33 0 2.185-.855 2.185-2.375v-.57h-.095c-.38.475-1.14.95-2.09.95-1.995 0-3.895-1.805-3.895-3.99 0-2.28 1.805-4.085 3.895-4.085.95 0 1.71.475 2.09.95h.095v-.665zm.095 3.8c0-1.425-.95-2.47-2.185-2.47s-2.28 1.045-2.28 2.47c0 1.425 1.045 2.47 2.28 2.47 1.235 0 2.185-1.045 2.185-2.47zM56.335 6.23c-.57-.57-.855-1.235-.855-2.09 0-.855.285-1.52.855-2.09.57-.665 1.235-.95 2.09-.95.855 0 1.52.285 2.09.855.57.57.855 1.235.855 2.09 0 .855-.285 1.52-.855 2.09-.57.57-1.235.855-2.09.855-.855.095-1.52-.19-2.09-.76zm-.095-2.09c0 .665.19 1.235.665 1.615.38.475.95.665 1.52.665.57 0 1.14-.19 1.52-.665.38-.38.665-.95.665-1.615s-.19-1.235-.665-1.615c-.38-.475-.95-.665-1.52-.665-.57 0-1.14.19-1.52.665-.475.38-.665.95-.665 1.615zM32.775 7.085c.855 0 1.52-.285 2.09-.855.475-.475.665-1.14.665-1.9v-.475h-2.755v.665h2.09c0 .475-.19.855-.475 1.14-.38.38-.95.665-1.615.665-.57 0-1.14-.19-1.52-.665-.475-.38-.665-.95-.665-1.615s.19-1.235.665-1.615c.475-.38.95-.665 1.52-.665.665 0 1.14.19 1.52.665l.57-.38c-.19-.285-.475-.475-.855-.665a2.63 2.63 0 00-1.235-.285c-.855 0-1.52.285-2.09.855-.57.57-.855 1.235-.855 2.09 0 .855.285 1.52.855 2.09.57.665 1.33.95 2.09.95zm7.22-.855H37.43V4.425h2.375V3.76H37.43V1.955h2.565V1.29H36.67v5.7h3.325v-.76zm3.135.76V1.955h1.52V1.29h-3.895v.665h1.615V6.99h.76zm5.13-5.7h-.76v5.7h.76v-5.7zm3.23 5.7V1.955h1.615V1.29H49.21v.665h1.615V6.99h.665zm11.59-3.61V2.24l2.945 4.655h.76v-5.7h-.76V5.66L63.27 1.195h-.855v5.7h.76V3.38h-.095z" fill="#fff"/></g><defs><linearGradient id="paint0_linear_244_1262" x1="11.239" y1="2.953" x2="-4.712" y2="18.894" gradientUnits="userSpaceOnUse"><stop stop-color="#00A0FF"/><stop offset=".01" stop-color="#00A1FF"/><stop offset=".26" stop-color="#00BEFF"/><stop offset=".51" stop-color="#00D2FF"/><stop offset=".76" stop-color="#00DFFF"/><stop offset="1" stop-color="#00E3FF"/></linearGradient><linearGradient id="paint1_linear_244_1262" x1="22.667" y1="13.678" x2="-.313" y2="13.678" gradientUnits="userSpaceOnUse"><stop stop-color="#FFE000"/><stop offset=".41" stop-color="#FFBD00"/><stop offset=".78" stop-color="orange"/><stop offset="1" stop-color="#FF9C00"/></linearGradient><linearGradient id="paint2_linear_244_1262" x1="14.108" y1="15.863" x2="-7.505" y2="37.476" gradientUnits="userSpaceOnUse"><stop stop-color="#FF3A44"/><stop offset="1" stop-color="#C31162"/></linearGradient><linearGradient id="paint3_linear_244_1262" x1="-2.536" y1="-5.151" x2="7.116" y2="4.501" gradientUnits="userSpaceOnUse"><stop stop-color="#32A071"/><stop offset=".07" stop-color="#2DA771"/><stop offset=".48" stop-color="#15CF74"/><stop offset=".8" stop-color="#06E775"/><stop offset="1" stop-color="#00F076"/></linearGradient><clipPath id="clip0_244_1262"><path fill="#fff" transform="translate(0 .15)" d="M0 0h110.2v27.55H0z"/></clipPath></defs></svg>
